X: 1722
T: BILL ELLIS' HORNPIPE
M:C|
L:1/8
B:O'NEILL'S 1722
N:"collected by J. O'Neill"
Z:Transcribed by A.LEE WORMAN
K:A
c>d|e>^de>c a>ga>e|c'>bc'>e a>ga>e|f>gf>e d>cB>A|(3EGB (3egb e'2 c>d|
e>^de>c a>ga>e|c'>bc'>e a>ga>e|(3fag (3fed c>BA>G|B2 A2 A2:|
|:B>c|d>cd>B (3bag (3fed|c>Bc>A (3agf (3edc|B>AB>d (3gfe (3dcB|A>c e>f e2 c>d|
e>^de>c a>ga>e|c'>bc'>e a>ga>e|(3fag (3fed c>BA>G|B2 A2 A2:|


